audio-input-xlr.svg

<svg fill="currentColor" viewBox="0 0 24 24"><path d="M12 4c4.41 0 8 3.59 8 8s-3.59 8-8 8-8-3.59-8-8 3.59-8 8-8m0-2C6.5 2 2 6.5 2 12s4.5 10 10 10 10-4.5 10-10S17.5 2 12 2m1.5 14.5c0-.83-.67-1.5-1.5-1.5s-1.5.67-1.5 1.5.67 1.5 1.5 1.5 1.5-.67 1.5-1.5M9 12c0-.83-.67-1.5-1.5-1.5S6 11.17 6 12s.67 1.5 1.5 1.5S9 12.83 9 12m9 0c0-.83-.67-1.5-1.5-1.5S15 11.17 15 12s.67 1.5 1.5 1.5S18 12.83 18 12"/></svg>

<svg  viewBox="0 0 24 24" fill="currentColor"><path  d="M12 4C16.41 4 20 7.59 20 12S16.41 20 12 20 4 16.41 4 12 7.59 4 12 4M12 2C6.5 2 2 6.5 2 12S6.5 22 12 22 22 17.5 22 12 17.5 2 12 2M13.5 16.5C13.5 15.67 12.83 15 12 15S10.5 15.67 10.5 16.5C10.5 17.33 11.17 18 12 18S13.5 17.33 13.5 16.5M9 12C9 11.17 8.33 10.5 7.5 10.5S6 11.17 6 12 6.67 13.5 7.5 13.5 9 12.83 9 12M18 12C18 11.17 17.33 10.5 16.5 10.5C15.67 10.5 15 11.17 15 12S15.67 13.5 16.5 13.5C17.33 13.5 18 12.83 18 12Z"/></svg>
